X:1
T:Paratum cor meum - Schütz
T:#
%%score 1 2 3 4
L:1/8
Q:1/4=90
M:none
K:C
V:1 treble nm="Violin I"
V:2 treble nm="Violin II"
V:3 treble nm="Soprano" snm="S"
V:4 bass nm="Midi_20"
V:1
"^Paratum cor meum, SWV 257""^Heinrich Schütz\n (1585-1672)""^Psalm 107: 2-4 (Vulgate)" z16 | %1
 z16 ||[M:3/2][Q:1/4=200] z12 | z12 |[M:3/2][Q:1/4=200][Q:1/4=200][Q:1/4=200][Q:1/4=200] z12 | %5
 z12 | z12 | z12 | z12 | z12 | z12 | z4 z4 e4 | c2 d2 c2 d2 e2 f2 | g4 f4 e4 | f4 e4 d4 | %15
 e6 d2 ^c4 | d4 d4 z4 | z4 z4 A4 | c2 d2 c2 d2 e2 f2 | g4 g4 z4 | z12 | z12 | z4 z4 g4 | %23
 e2 f2 e2 f2 g2 a2 | =b4 a4 g4 | a4 g4 ^f4 | e6 g2 ^f4 | e4 e4 g4 | ^f2 g2 f2 g2 a2 b2 | %29
 c'4 b4 a4 | b4 a4 g4 | a6 g2 ^f4 | g4 g4 z4 | z4 z4 e4 | c2 d2 c2 d2 e2 ^f2 | ^g4 a4 b4 | %36
 c'4 b4 a4 | ^g8 a4 | b4 ^g8 | a8 z4 | z4 z4 A4 | e4 e4 z4 | z4 z4 c4 | g4 g4 z4 | z4 z4 e4 | %45
 a8 g4 | f6 e2 d4 | e6 d2 ^c4 | d4 d4 z4 | z12 | z12 | z12 | z4 z4 A4 | e4 e4 z4 | z4 z4 c4 | %55
 g4 g4 z4 | z4 z4 e4 | a8 g4 | f6 f2 e4 | d6 c2 B4 | e6 d2 ^c4 | d4 d4 z4 | A6 B2 c4 | g6 f2 d4 | %64
 e4 e4 z4 | z4 z4 A4 | e4 e4 d4 | e6 e2 B4 | A4 e4 f4 | g2 e2 f2 e2 d2 f2 | e6 d2 c2 e2 | %71
 d2 c2 B2 A2 B4 | A2 B2 c2 d2 e2 f2 | g2 f2 e2 d2 e4 | d8 z4 | z12 | z12 | z12 | z12 | z4 z4 B4 | %80
 c4 c4 z4 | z4 z4 e4 | a4 a4 ^g4 | a6 a2 e4 | e4 a4 b4 | a2 f2 g2 f2 e2 g2 | f2 d2 f2 e2 d2 e2 | %87
 f2 g2 e6 d2 | d8 z4 | d4 g4 a4 | g2 e2 f2 e2 d2 f2 | e2 c2 d2 e2 f2 e2 | d2 c2 d6 c2 | c8 d4 | %94
 e4 e4 d4 | e6 e2 d4 | e4 a4 =b4 | a6 g2 ^f2 g2 | a8 ^g4 | a8 e4 | f4 =g2 a2 e2 d2 | d4 z4 e4 | %102
 f4 g2 a2 e2 d2 | d4 z4 z4 | z12 | z12 | z12 | z4 z4 e4 | f4 g2 a2 e2 d2 | d8 z4 | z12 | z4 z4 B4 | %112
 c4 d2 e2 B2 A2 | A8 z4 | z12 | z12 | z12 | z12 | z4 z4 e4 | g4 a2 b2 ^f2 e2 | e8 z4 | %121
 g4 g2 g4 g2 | g4 g4 z4 | z12 | z12 | d4 d2 d4 d2 | d4 d4 d4 | f4 e4 d4 | c8 d4 | e8 z4 | %130
 z4 z4 e4 | g4 ^f4 e4 | ^d8 e4 | ^f8 z4 | z12 | z4 z4 d4 | f4 e4 d4 | ^c8 d4 | e12 | %139
 =c2 B2 c2 e2 d2 c2 | d2 c2 d2 f2 e2 d2 | e4 e4 z4 | z12 | d2 c2 d2 f2 e2 d2 | e2 d2 e2 g2 ^f2 e2 | %145
 ^f4 f4 z4 | z12 | c2 B2 c2 e2 d2 c2 | d2 c2 d2 f2 e2 d2 | e2 d2 e2 g2 ^f2 e2 | %150
 ^f2 e2 f2 a2 g2 f2 | g8 g4 | =f8 e4 | d6 c2 d4 | e8 z4 | z12 | z12 | z12 | z12 | z12 | z12 | z12 | %162
 z12 | z4 z4 a4 | ^f2 g2 a2 g2 f2 e2 | d2 e2 ^f2 d2 e2 f2 | g4 d4 g4 | e2 f2 g2 f2 e2 d2 | %168
 c2 d2 e2 c2 d2 e2 | f2 d2 e2 f2 g4 | e4 d4 g4 | e8 e4 | c2 d2 e2 d2 c2 B2 | A2 B2 c2 B2 A2 G2 | %174
 F2 G2 A2 G2 F2 E2 | D2 E2 F2 G2 A4 | D2 E2 F2 G2 A2 B2 | c4 A2 B2 c2 d2 | e12 | c4 B6 A2 | A12 | %181
!p! e12 | d12- | d12 | d12 | e12 ||!f![Q:1/4=100] c2 d2 e2 ^f2 ^g4 a4- | a4 ^g4 a8 |] %188
V:2
 z16 | z16 ||[M:3/2] z12 | z12 |[M:3/2] z12 | z12 | z12 | z12 | z12 | z12 | z12 | z4 z4 B4 | %12
 A2 B2 A2 B2 c2 d2 | e4 d4 ^c4 | d4 =c4 B4 | ^c6 d2 e4 | d4 d4 G4 | A2 B2 A2 B2 c2 d2 | e4 e4 z4 | %19
 z12 | z12 | z12 | z4 z4 d4 | c2 d2 c2 d2 e2 f2 | g4 f4 e4 | ^f4 g4 a4 | g6 e2 ^d4 | e4 e4 z4 | %28
 z4 z4 d4 | c2 d2 c2 d2 e2 f2 | g4 ^f4 e4 | ^f6 g2 a4 | g4 g4 z4 | z12 | z4 z4 c4 | %35
 e2 f2 e2 f2 e2 d2 | c4 d4 e4 | e8 f4 | f4 e8 | e8 z4 | z4 z4 A4 | B4 B4 z4 | z4 z4 A4 | e4 e4 z4 | %44
 z4 z4 c4 | f8 c4 | d6 A2 B4 | ^c6 d2 e4 | d4 d4 z4 | z12 | z12 | z12 | z4 z4 A4 | ^G4 G4 z4 | %54
 z4 z4 A4 | e4 e4 z4 | z4 z4 c4 | f8 g4 | a6 a2 a4 | g4 g4 z4 | z4 z4 z4 | f6 e2 d4 | c6 B2 A4 | %63
 d6 c2 B4 | c4 c4 z4 | z12 | z4 z4 D4 | A4 A4 ^G4 | A6 A2 D4 | E4 A4 B4 | c2 A2 c2 B2 A2 c2 | %71
 B2 A2 A4 ^G4 | A2 ^G2 A2 B2 c2 A2 | B2 ^c2 d2 B2 c4 | d8 z4 | z12 | z12 | z12 | z12 | z12 | %80
 z4 z4 A4 | e4 e4 z4 | z12 | z12 | z12 | z12 | z12 | z12 | A4 d4 e4 | d2 B2 c2 B2 A2 c2 | %90
 B2 G2 c2 A2 d4 | G2 E2 F2 G2 A2 B2 | c6 B2 B4 | c8 z4 | G4 c4 B2 B2 | c6 c2 B4 | z12 | A4 e4 d4 | %98
 c4 f4 e4 | e8 ^c4 | d4 e2 f2 ^c4 | d4 z4 ^c4 | d4 e2 f2 ^c4 | d4 z4 z4 | z12 | z12 | z12 | z12 | %108
 A4 A2 A4 A2 | A4 A4 A4 | c4 B4 A4 | ^G4 A4 G4 | A8 z4 | e4 e2 e4 e2 | e4 e4 e4 | f4 e4 d4 | %116
 c8 d4 | e8 z4 | z4 z4 c4 | e4 ^f2 g2 ^d4 | e8 z4 | e4 e2 e4 e2 | e4 e4 e4 | g4 f4 e4 | d8 e4 | %125
 ^f12 | z12 | z12 | z12 | z4 z4 ^f4 | g4 ^f4 e4 | ^d8 e4 | ^f8 e4 | ^d8 z4 | z4 z4 e4 | f4 e4 d4 | %136
 ^c8 d4 | e8 d4 | ^c12 | A2 G2 A2 =c2 B2 A2 | B2 A2 B2 d2 c2 B2 | c4 c4 z4 | z12 | %143
 B2 A2 B2 d2 ^c2 B2 | ^c2 B2 c2 e2 d2 c2 | d4 d4 z4 | z12 | A2 G2 A2 c2 B2 A2 | B2 A2 B2 d2 c2 B2 | %149
 c2 B2 c2 e2 d2 c2 | d2 c2 d2 e2 d2 c2 | B8 e4 | d8 c4 | B6 E2 G4 | G8 z4 | z12 | z12 | z12 | z12 | %159
 z12 | z12 | z4 z4 e4 | c2 d2 e2 d2 c2 B2 | A2 B2 c2 A2 B2 c2 | d2 e2 ^f2 e2 d2 ^c2 | d6 e2 d2 c2 | %166
 B2 c2 d2 B2 c2 d2 | e4 c4 G4 | A8 G4 | A8 c4- | c4 B8 | c8 z4 | z4 z4 e4 | c2 d2 e2 d2 c2 B2 | %174
 A2 B2 c2 B2 A2 G2 | F2 G2 A2 G2 F2 E2 | F4 D2 E2 F2 G2 | A2 B2 c4 A2 B2 | c2 d2 e2 ^f2 ^g4 | %179
 a4 ^g6 ^fg | a12 |!p! c12 | A12- | A12 | A12 | A12 ||!f! E12 F/G/A/B/ c/d/e/f/ | e8 e8 |] %188
V:3
 z2 E2 A2 AB ^G2 GE A2 AE | ^F2 FA d2 de c3 B B4 ||[M:3/2] A8 E4 | (F2 G2 F2 G2 A2 B2 | %4
w: Pa- ra- tum cor me- um, pa- ra- tum cor|me- um, pa- ra- tum cor me- um, De-|us. Can-|ta- * * * * *|
[M:3/2] c4 B4 A4 | B4 A4 G4 | A6 G2 ^F4 | G4 G4 ^F4 | (G2 A2 G2 A2 B2 c2 | d4) c4 B4 | c4 B4 A4 | %11
w: * bo et|psal- lam in|glo- ri- a|me- a, can-|ta\- * * * * *|* bo et|psal- lam in|
 B6 A2 ^G4 | A4 A4 z4 | z12 | z12 | z4 z4 E4 | F2 G2 F2 G2 A2 B2 | c4) c4 z4 | z4 z4 A4 | %19
w: glo- ri- a|me- a,|||can-|ta\- * * * * *|* bo,|can-|
 (B2 c2 B2 c2 d2 e2 | f4) e4 d4 | e4 d4 c4 | d6 c2 B4 | c4 c4 z4 | z12 | z12 | z4 z4 B4 | %27
w: ta\- * * * * *|* bo et|psal- lam in|glo- ri- a|me- a,|||can-|
 (G2 A2 G2 A2 B2 c2 | d4) d4 z4 | z12 | z12 | z4 z4 D4 | (G2 A2 G2 A2 B2 c2 | d4) c4 B4 | %34
w: ta\- * * * * *|* bo,|||can-|ta\- * * * * *|* bo in|
 c4 B4 A4 | B6 A2 ^G4 | A6 B2 c4 | B8 c4 | d4 B8 | A8 z4 | z12 | z12 | z12 | z12 | z12 | z12 | %46
w: psal- lam in|glo- ri- a,|glo- ri- a,|glo- ri-|a me-|a.|||||||
 z8 D4 | A4 A4 z4 | z4 z4 F4 | c4 c4 z4 | z4 z4 A4 | e8 d4 | c6 B2 A4 | B6 A2 ^G4 | A4 A4 z4 | %55
w: Ex-|sur- ge,|ex-|sur- ge,|ex-|sur- ge|glo- ri- a,|glo- ri- a|me- a,|
 z4 z4 B4 | e4 e4 z4 | z4 z4 G4 | d8 c4 | B6 c2 d4 | ^c6 d2 e4 | d4 d4 z4 | e6 d2 c4 | B6 c2 d4 | %64
w: ex-|sur- ge,|ex-|sur- ge|glo- ri- a,|glo- ri- a|me- a,|glo- ri- a,|glo- ri- a|
 c4 c4 z4 | z12 | z12 | z12 | z12 | z12 | z12 | z4 z4 E4 | A4 A4 z4 | z4 z4 A4 | d4 d4 ^c4 | %75
w: me- a.|||||||Ex-|sur- ge,|ex-|sur- ge psal-|
 d6 d2 A4 | A4 d4 e4 | (d2 B2 c2 B2 A2 c2 | B2 G2 A2 B2 c2 A2 | B2 A2 A4) ^G4 | A8 z4 | z12 | %82
w: te- ri- um,|ex- sur- ge|cy\- * * * * *||* * * tha-|ra,||
 z4 z4 B4 | c4 c4 B4 | c6 c2 B4 | A4 d4 e4 | (d2 B2 d2 c2 B2 c2 | d2 B2 ^c6) c2 | d8 z4 | z12 | %90
w: ex-|sur- ge psal-|te- ri- um,|ex- sur- ge|cy\- * * * * *|* * * tha-|ra,||
 z12 | z12 | z4 z4 G4 | c4 c4 B4 | c6 c2 G4 | G4 c4 d4 | (c2 e2 d2 c2 B2 d2 | c2 d2 e2 c2 d2 c2 | %98
w: ||ex-|sur- ge psal-|te- ri- um,|ex- sur- ge|cy\- * * * * *||
 B2 A2 B6) A2 | A8 z4 | z4 z4 A4 | d4 e2 f2 e2 d2 | d8 z4 | d4 d2 d4 d2 | d4 d4 d4 | f4 e4 d4 | %106
w: * * * tha-|ra.|Ex-|sur- gam di- lu- cu-|lo,|con- fi- te- bor|ti- bi in|po- pu- lis,|
 ^c8 d4 | e8 z4 | z12 | z12 | z4 z4 A4 | c4 d2 e2 B2 A2 | A8 z4 | z12 | A4 A2 A4 A2 | A4 A4 A4 | %116
w: Do- mi-|ne,|||ex-|sur- gam di- lu- cu-|lo,||con- fi- te- bor|ti- bi in|
 c4 B4 A4 | ^G8 A4 | B8 z4 | z12 | B4 B2 B4 B2 | B4 B4 B4 | c4 G4 A4 | B8 c4 | d8 z4 | z12 | z12 | %127
w: po- pu- lis,|Do- mi-|ne,||con- fi- te- bor|ti- bi in|po- pu- lis,|Do- mi-|ne,|||
 A4 A2 A4 A2 | A4 A4 A4 | c4 B4 A4 | G8 A4 | B8 z4 | z12 | z4 z4 B4 | c4 B4 A4 | F8 G4 | A12- | %137
w: con- fi- te- bor|ti- bi in|po- pu- lis,|Do- mi-|ne,||in|po- pu- lis,|Do- mi-|ne.|
 A12 | z12 | z12 | z12 | (E2 D2 E2 G2 ^F2 E2 | ^F2 E2 F2 A2 G2 F2 | G4) G4 z4 | z12 | %145
w: ||||Psal\- * * * * *||* lam,||
 (^F2 E2 F2 A2 ^G2 F2 | ^G2 ^F2 G2 B2 A2 G2 | A4 A4 z4 | z12 | z12 | z12 | (G2 ^F2 G2 B2 A2 G2 | %152
w: psal\- * * * * *||* lam,||||psal\- * * * * *|
 A2 G2 A2 c2 B2 A2 | B6) c2 B4 | c8 e4 | c2 d2 e2 d2 c2 B2 | A2 B2 c2 B2 A2 G2 | %157
w: |* lam ti-|bi in|na\- * * * * *||
 F2 G2 A2 G2 F2 E2 | D2 E2 ^F2 D2 E2 F2 | G2 A2 B2 G2 A2 B2 | c2 A2 B2 c2 d4) | c4 B6 A2 | A8 z4 | %163
w: ||||ti- o- ni-|bus,|
 z12 | z4 z4 d4 | (B2 c2 d2 c2 B2 A2 | G2 A2 B2 G2 A2 B2 | c2 d2 e2 d2 c2 B2 | A2 B2 c2 A2 B2 c2 | %169
w: |in|na\- * * * * *||||
 d2 B2 c2 d2 e4) | c4 d6 c2 | c8 z4 | z12 | z12 | z12 | z12 | z12 | z12 | z12 | z4 z4 e4 | %180
w: |ti- o- ni-|bus,||||||||in|
 (c2 d2 e2 d2 c2 B2 | A2 B2 c2 B2 A2 G2 | F2 G2 A2 G2 F2 E2 | D2 E2 F2 G2 A4 | D2 E2 F2 G2 A2 B2 | %185
w: na\- * * * * *|||||
 c4 A2 B2 c2 d2 || e12 c4) | B6 A2 A8 |] %188
w: |* ti-|o- ni- bus.|
V:4
 A,,8 E,4 ^C,4 | D,4 B,,4 A,,2 D,2 E,4 ||[M:3/2] A,,8 A,,4 | D,4 C,4 B,,4 |[M:3/2] A,,8 D,4 | %5
w: * * 6|||||
 G,,8 B,,4 | C,8 D,4 | G,,8 D,4 | E,4 D,4 C,4 | B,,8 E,4 | A,,8 C,4 | D,8 E,4 | A,4 G,4 F,4 | %13
w: * 6|6 *||||* 6|6 *||
 E,8 A,4 | D,8 D,4 | A,,8 A,,4 | D,4 C,4 B,,4 | A,,12 | A,,8 A,4 | G,4 F,4 E,4 | D,8 G,4 | %21
w: |* 6||* * 6|||||
 C,8 E,4 | F,8 G,4 | C4 B,4 A,4 | G,8 G,4 | D,8 D,4 | E,6 E,2 B,,4 | E,8 E,4 | D,4 C,4 B,,4 | %29
w: * 6|6 *||* 6|||||
 A,,12 | G,,12 | D,8 D,4 | E,4 D,4 C,4 | B,,8 E,4 | A,,12 | E,12 | A,12 | E,8 D,4- | D,4 E,8 | %39
w: ||||||||||
 A,,8 z4 | z4 z4 A,4 | ^G,4 G,4 z4 | z4 z4 A,4 | E,4 E,4 z4 | z4 z4 A,4 | F,8 E,4 | D,6 C,2 B,,4 | %47
w: ||||||* 6|* 6 *|
 A,,8 A,,4 | D,8 D,4 | A,4 A,4 z4 | z4 z4 F,4 | C8 B,4 | A,6 G,2 F,4 | E,8 E,4 | A,,8 A,4 | %55
w: ||||||||
 E,8 E4 | C8 A,4 | F,8 E,4 | D,12 | G,12 | A,12 | D,12 | A,12 | G,12 | C,4 C,4 z4 | %65
w: ||||||||||
 z4 z4[K:treble] A4 | e4 e4 D4 | A4 A4 ^G4 | A6 A2 D4 | E4 A4 B4 | c2 A2 c2 B2 A2 c2 | %71
w: ||* * 6||* 6 *||
 B2 A2 A4 E4 | A6 B2 c2 A2 | B2 ^c2 d2 B2 A4 | d4 d4[K:bass] A,,4 | D,4 D,4 ^C,4 | D,6 D,2 A,,4 | %77
w: |* * * 6|||||
 D,4 E,4 ^F,4 | G,2 E,2 F,2 D,2 E,2 F,2 | G,4 A,4 E,4 | A,,8 A,4 | ^G,8 A,4 | F,8 E,4 | %83
w: * 6 *|* * * 6 6 *|||||
 A,4 A,4 ^G,4 | A,6 A,2 E,4 | A,,4 B,,4 C,4 | D,8 G,,4- | G,,4 A,,8 | D,8 ^C,4 | D,4 E,4 ^F,4 | %90
w: ||* 6 *||||* 6 *|
 G,4 A,4 B,4 | C8 F,4 | A,4 F,4 G,4 | C,8 G,,4 | C,4 C,4 G,4 | C,6 C,2 G,,4 | C,4 F,4 G,4 | %97
w: * 6 *||||||* 6 *|
 A,8 D,4 | F,4 D,4 E,4 | A,,8 A,,4 | D,8 A,4 | D,8 A,,4 | D,8 A,4 | D,4 E,4 ^F,4 | G,4 G,,4 B,,4 | %105
w: ||||||* * 6||
 D,4 C,4 B,,4 | A,,8 B,,4 | ^C,8 C,4 | D,4 D,4 ^C,4 | D,6 E,2 F,2 G,2 | A,4 G,4 F,4 | E,4 D,4 E,4 | %112
w: ||6 *||||6 * *|
 A,,4 A,4 ^G,4 | A,4 C4 B,4 | A,8 A,,4 | D,6 E,2 F,2 G,2 | A,4 G,4 F,4 | E,8 ^F,4 | ^G,8 A,4 | %119
w: ||||* * 6|||
 E,4 A,,4 B,,4 | E,12 | E,8 D,4 | C,4 B,,4 A,,4 | G,,8 A,,4 | B,,8 C,4 | D,12 | D,4 D,2 D,4 D,2 | %127
w: ||||||||
 D,4 D,4 D,4 | F,4 E,4 D,4 | C,8 D,4 | E,8 C,4 | B,,4- B,,4 E,,4 | B,,8 C,4 | B,,8 E,4 | %134
w: |||* 6|6 5 *|||
 A,,8 A,,4 | D,4 C,4 B,,4 | A,,4- A,,4 D,,4 | A,,8 D,4 | A,,12 | A,12 | G,12 | C,12 | D,12 | %143
w: |* * 6|6 5 *|||||||
 G,8 B,4 | A,12 | D,12 | E,12 | A,12 | G,12 | C,8 E,4 | D,12 | E,12 | F,12 | G,6 A,2 G,4 | C8 B,4 | %155
w: ||||||||||||
 A,8 G,4 | F,8 E,4 | D,8 C,4 | B,,8 A,,4 | G,,4 G,4 F,4 | E,8 D,4- | D,4 E,8 | A,,12 | A,12 | %164
w: |||||6 *||||
 D,12 | D,12 | G,12 | C,12 | F,8 E,4 | D,8 C,4- | C,4 G,8 | C,8 B,,4 | A,,12 | A,,12 | A,,12 | %175
w: |||||||||||
 D,12 | D,12 | A,,12 | A,,2 B,,2 C,2 D,2 E,4 | D,4 E,8 | A,,12- | A,,12 | D,12- | D,12 | D,12 | %185
w: ||||||||||
 A,,12 || A,,2 B,,2 C,2 D,2 E,4 D,4 | E,4- E,4 A,,8 |] %188
w: ||4 3 *|

